images/indikatorenset/5873.svg

<?xml version="1.0" standalone="no"?><!DOCTYPE svg PUBLIC "-//W3C//DTD SVG 1.1//EN" "http://www.w3.org/Graphics/SVG/1.1/DTD/svg11.dtd"><svg xmlns:xlink="http://www.w3.org/1999/xlink" version="1.1" class="highcharts-root" style="font-family:arial;font-size:12px;" xmlns="http://www.w3.org/2000/svg" viewBox="0 0 320 208"><desc>Created with Highstock 5.0.14</desc><defs><clipPath id="highcharts-axs4bev-6"><rect x="0" y="0" width="285" height="136" fill="none"></rect></clipPath><clipPath id="highcharts-axs4bev-7"><rect x="0" y="0" width="285" height="136" fill="none"></rect></clipPath></defs><rect fill="#fbfbfb" class="highcharts-background" x="0" y="0" width="320" height="208" rx="0" ry="0"></rect><rect fill="none" class="highcharts-plot-background" x="32" y="43" width="285" height="136"></rect><g class="highcharts-pane-group"></g><g class="highcharts-grid highcharts-xaxis-grid "><path fill="none" class="highcharts-grid-line" d="M 34.5 43 L 34.5 179" opacity="1"></path><path fill="none" class="highcharts-grid-line" d="M 80.5 43 L 80.5 179" opacity="1"></path><path fill="none" class="highcharts-grid-line" d="M 127.5 43 L 127.5 179" opacity="1"></path><path fill="none" class="highcharts-grid-line" d="M 174.5 43 L 174.5 179" opacity="1"></path><path fill="none" class="highcharts-grid-line" d="M 220.5 43 L 220.5 179" opacity="1"></path><path fill="none" class="highcharts-grid-line" d="M 267.5 43 L 267.5 179" opacity="1"></path><path fill="none" class="highcharts-grid-line" d="M 313.5 43 L 313.5 179" opacity="1"></path></g><g class="highcharts-grid highcharts-yaxis-grid "><path fill="none" stroke="#B9CFD7" stroke-width="0.5" class="highcharts-grid-line" d="M 32 179.25 L 317 179.25" opacity="1"></path><path fill="none" stroke="#B9CFD7" stroke-width="0.5" class="highcharts-grid-line" d="M 32 111.25 L 317 111.25" opacity="1"></path><path fill="none" stroke="#B9CFD7" stroke-width="0.5" class="highcharts-grid-line" d="M 32 42.75 L 317 42.75" opacity="1"></path></g><rect fill="none" class="highcharts-plot-border" x="32" y="43" width="285" height="136"></rect><g class="highcharts-axis highcharts-xaxis "><path fill="none" class="highcharts-axis-line" stroke="#B9CFD7" stroke-width="0.5" d="M 32 179.25 L 317 179.25"></path></g><g class="highcharts-axis highcharts-yaxis "><path fill="none" class="highcharts-axis-line" d="M 32 43 L 32 179"></path></g><g class="highcharts-series-group"><g class="highcharts-series highcharts-series-0 highcharts-line-series highcharts-color-undefined " transform="translate(32,43) scale(1 1)" clip-path="url(#highcharts-axs4bev-7)"><path fill="none" d="M 2.7941176470598 32.60435536712252 L 18.316993464053 31.110631824221556 L 33.839869281047 47.048698144603435 L 49.36274509804 40.22903256797028 L 64.885620915033 45.72584856396884 L 80.408496732027 43.35161482220653 L 95.93137254902 38.12733335888689 L 111.45424836601 32.64 L 126.97712418301 40.39652865389792 L 142.5 40.69534666132003 L 158.02287581699 51.68000000000001 L 173.54575163399 73.44 L 189.06862745098 85.3912002053095 L 204.59150326797 34.723404255319124 L 220.11437908497 103.8529556370788 L 235.63725490196 112.82423693129783 L 251.16013071895 120.33695294504773 L 266.68300653595 113.115689381964 L 282.20588235294 107.659612919884" class="highcharts-graph" stroke="#83522E" stroke-width="2" stroke-linejoin="round" stroke-linecap="round"></path></g><g class="highcharts-markers highcharts-series-0 highcharts-line-series highcharts-color-undefined " transform="translate(32,43) scale(1 1)" clip-path="none"><path fill="#83522E" d="M 6 33 A 4 4 0 1 1 5.999998000000167 32.99600000066666 Z" class="highcharts-point"></path><path fill="#83522E" d="M 22 31 A 4 4 0 1 1 21.99999800000017 30.996000000666665 Z" class="highcharts-point"></path><path fill="#83522E" d="M 37 47 A 4 4 0 1 1 36.99999800000017 46.99600000066666 Z" class="highcharts-point"></path><path fill="#83522E" d="M 53 40 A 4 4 0 1 1 52.99999800000017 39.99600000066666 Z" class="highcharts-point"></path><path fill="#83522E" d="M 68 46 A 4 4 0 1 1 67.99999800000016 45.99600000066666 Z" class="highcharts-point"></path><path fill="#83522E" d="M 84 43 A 4 4 0 1 1 83.99999800000016 42.99600000066666 Z" class="highcharts-point"></path><path fill="#83522E" d="M 99 38 A 4 4 0 1 1 98.99999800000016 37.99600000066666 Z" class="highcharts-point"></path><path fill="#83522E" d="M 115 33 A 4 4 0 1 1 114.99999800000016 32.99600000066666 Z" class="highcharts-point"></path><path fill="#83522E" d="M 130 40 A 4 4 0 1 1 129.99999800000018 39.99600000066666 Z" class="highcharts-point"></path><path fill="#83522E" d="M 146 41 A 4 4 0 1 1 145.99999800000018 40.99600000066666 Z" class="highcharts-point"></path><path fill="#83522E" d="M 162 52 A 4 4 0 1 1 161.99999800000018 51.99600000066666 Z" class="highcharts-point"></path><path fill="#83522E" d="M 177 73 A 4 4 0 1 1 176.99999800000018 72.99600000066667 Z" class="highcharts-point"></path><path fill="#83522E" d="M 193 85 A 4 4 0 1 1 192.99999800000018 84.99600000066667 Z" class="highcharts-point"></path><path fill="#83522E" d="M 208 35 A 4 4 0 1 1 207.99999800000018 34.99600000066666 Z" class="highcharts-point"></path><path fill="#83522E" d="M 224 104 A 4 4 0 1 1 223.99999800000018 103.99600000066667 Z" class="highcharts-point"></path><path fill="#83522E" d="M 239 113 A 4 4 0 1 1 238.99999800000018 112.99600000066667 Z" class="highcharts-point"></path><path fill="#83522E" d="M 255 120 A 4 4 0 1 1 254.99999800000018 119.99600000066667 Z" class="highcharts-point"></path><path fill="#83522E" d="M 270 113 A 4 4 0 1 1 269.9999980000002 112.99600000066667 Z" class="highcharts-point"></path><path fill="#83522E" d="M 286 108 A 4 4 0 1 1 285.9999980000002 107.99600000066667 Z" class="highcharts-point"></path></g></g><text x="3" text-anchor="start" class="highcharts-title" style="color:#000000;font-size:10px;font-weight:bold;fill:#000000;" y="22"><tspan>Leerwohnungsquote</tspan></text><g class="highcharts-data-labels highcharts-series-0 highcharts-line-series highcharts-color-undefined " visibility="visible" transform="translate(32,43) scale(1 1)"><g class="highcharts-label highcharts-data-label highcharts-data-label-color-undefined " transform="translate(-5,-3)"><text x="5" style="font-size:10px;font-weight:normal;color:#000000;fill:#000000;" y="15"><tspan x="5" y="15" class="highcharts-text-outline" fill="#FFFFFF" stroke="#FFFFFF" stroke-width="2px" stroke-linejoin="round" style="">1998:</tspan><tspan x="5" dy="13" class="highcharts-text-outline" fill="#FFFFFF" stroke="#FFFFFF" stroke-width="2px" stroke-linejoin="round" style="">1,5</tspan><tspan x="5" y="15">1998:</tspan><tspan x="5" dy="13">1,5</tspan></text></g><g class="highcharts-label highcharts-data-label highcharts-data-label-color-undefined " transform="translate(13,21)" opacity="0" visibility="hidden"><text x="5" style="font-size:10px;font-weight:normal;color:#000000;fill:#000000;" y="15"></text></g><g class="highcharts-label highcharts-data-label highcharts-data-label-color-undefined " transform="translate(29,37)"><text x="5" style="font-size:10px;font-weight:normal;color:#000000;fill:#000000;" y="15"></text></g><g class="highcharts-label highcharts-data-label highcharts-data-label-color-undefined " transform="translate(44,30)"><text x="5" style="font-size:10px;font-weight:normal;color:#000000;fill:#000000;" y="15"></text></g><g class="highcharts-label highcharts-data-label highcharts-data-label-color-undefined " transform="translate(60,36)"><text x="5" style="font-size:10px;font-weight:normal;color:#000000;fill:#000000;" y="15"></text></g><g class="highcharts-label highcharts-data-label highcharts-data-label-color-undefined " transform="translate(75,33)"><text x="5" style="font-size:10px;font-weight:normal;color:#000000;fill:#000000;" y="15"></text></g><g class="highcharts-label highcharts-data-label highcharts-data-label-color-undefined " transform="translate(91,28)"><text x="5" style="font-size:10px;font-weight:normal;color:#000000;fill:#000000;" y="15"></text></g><g class="highcharts-label highcharts-data-label highcharts-data-label-color-undefined " transform="translate(106,23)"><text x="5" style="font-size:10px;font-weight:normal;color:#000000;fill:#000000;" y="15"></text></g><g class="highcharts-label highcharts-data-label highcharts-data-label-color-undefined " transform="translate(122,30)"><text x="5" style="font-size:10px;font-weight:normal;color:#000000;fill:#000000;" y="15"></text></g><g class="highcharts-label highcharts-data-label highcharts-data-label-color-undefined " transform="translate(138,31)"><text x="5" style="font-size:10px;font-weight:normal;color:#000000;fill:#000000;" y="15"></text></g><g class="highcharts-label highcharts-data-label highcharts-data-label-color-undefined " transform="translate(153,42)"><text x="5" style="font-size:10px;font-weight:normal;color:#000000;fill:#000000;" y="15"></text></g><g class="highcharts-label highcharts-data-label highcharts-data-label-color-undefined " transform="translate(169,63)"><text x="5" style="font-size:10px;font-weight:normal;color:#000000;fill:#000000;" y="15"></text></g><g class="highcharts-label highcharts-data-label highcharts-data-label-color-undefined " transform="translate(184,75)"><text x="5" style="font-size:10px;font-weight:normal;color:#000000;fill:#000000;" y="15"></text></g><g class="highcharts-label highcharts-data-label highcharts-data-label-color-undefined " transform="translate(200,25)"><text x="5" style="font-size:10px;font-weight:normal;color:#000000;fill:#000000;" y="15"></text></g><g class="highcharts-label highcharts-data-label highcharts-data-label-color-undefined " transform="translate(215,94)"><text x="5" style="font-size:10px;font-weight:normal;color:#000000;fill:#000000;" y="15"></text></g><g class="highcharts-label highcharts-data-label highcharts-data-label-color-undefined " transform="translate(231,103)"><text x="5" style="font-size:10px;font-weight:normal;color:#000000;fill:#000000;" y="15"></text></g><g class="highcharts-label highcharts-data-label highcharts-data-label-color-undefined " transform="translate(246,110)"><text x="5" style="font-size:10px;font-weight:normal;color:#000000;fill:#000000;" y="15"></text></g><g class="highcharts-label highcharts-data-label highcharts-data-label-color-undefined " transform="translate(262,103)"><text x="5" style="font-size:10px;font-weight:normal;color:#000000;fill:#000000;" y="15"></text></g><g class="highcharts-label highcharts-data-label highcharts-data-label-color-undefined " transform="translate(255,72)"><text x="5" style="font-size:10px;font-weight:normal;color:#000000;fill:#000000;" y="15"><tspan x="5" y="15" class="highcharts-text-outline" fill="#FFFFFF" stroke="#FFFFFF" stroke-width="2px" stroke-linejoin="round" style="">2016:</tspan><tspan x="5" dy="13" class="highcharts-text-outline" fill="#FFFFFF" stroke="#FFFFFF" stroke-width="2px" stroke-linejoin="round" style="">0,4</tspan><tspan x="5" y="15">2016:</tspan><tspan x="5" dy="13">0,4</tspan></text></g></g><g class="highcharts-axis-labels highcharts-xaxis-labels "><text x="34.79411764705979" style="color:#000000;cursor:default;font-size:10;fill:#000000;" text-anchor="middle" transform="translate(0,0)" y="199" opacity="1">1998</text><text x="81.36274509803985" style="color:#000000;cursor:default;font-size:10;fill:#000000;" text-anchor="middle" transform="translate(0,0)" y="199" opacity="1">2001</text><text x="127.93137254901993" style="color:#000000;cursor:default;font-size:10;fill:#000000;" text-anchor="middle" transform="translate(0,0)" y="199" opacity="1">2004</text><text x="174.5" style="color:#000000;cursor:default;font-size:10;fill:#000000;" text-anchor="middle" transform="translate(0,0)" y="199" opacity="1">2007</text><text x="221.06862745098005" style="color:#000000;cursor:default;font-size:10;fill:#000000;" text-anchor="middle" transform="translate(0,0)" y="199" opacity="1">2010</text><text x="267.6372549019601" style="color:#000000;cursor:default;font-size:10;fill:#000000;" text-anchor="middle" transform="translate(0,0)" y="199" opacity="1">2013</text><text x="305.90625" style="color:#000000;cursor:default;font-size:10;fill:#000000;" text-anchor="middle" transform="translate(0,0)" y="199" opacity="1">2016</text></g><g class="highcharts-axis-labels highcharts-yaxis-labels "><text x="17" style="color:#000000;cursor:default;font-size:10;fill:#000000;" text-anchor="end" transform="translate(0,0)" y="185" opacity="1"><tspan>0.0</tspan></text><text x="17" style="color:#000000;cursor:default;font-size:10;fill:#000000;" text-anchor="end" transform="translate(0,0)" y="117" opacity="1"><tspan>1.0</tspan></text><text x="17" style="color:#000000;cursor:default;font-size:10;fill:#000000;" text-anchor="end" transform="translate(0,0)" y="49" opacity="1"><tspan>2.0</tspan></text></g><text x="10" class="highcharts-credits" text-anchor="start" style="cursor:default;color:#000000;font-size:10px;fill:#000000;" y="193"><tspan>Quelle: Statistisches Amt Basel-Stadt, Leerstandserhebung</tspan></text></svg>

<svg class="highcharts-root" xmlns="http://www.w3.org/2000/svg" viewBox="0 0 320 208" font-family="arial" font-size="12">
    <defs>
        <clipPath id="a">
            <path fill="none" d="M0 0h285v136H0z"/>
        </clipPath>
    </defs>
    <rect fill="#fbfbfb" class="highcharts-background" width="320" height="208" rx="0" ry="0"/>
    <path fill="none" class="highcharts-plot-background" d="M32 43h285v136H32z"/>
    <g class="highcharts-grid highcharts-xaxis-grid">
        <path fill="none" class="highcharts-grid-line" d="M34.5 43v136m46-136v136m47-136v136m47-136v136m46-136v136m47-136v136m46-136v136"/>
    </g>
    <g class="highcharts-grid highcharts-yaxis-grid">
        <path fill="none" stroke="#B9CFD7" stroke-width=".5" class="highcharts-grid-line" d="M32 179.25h285m-285-68h285M32 42.75h285"/>
    </g>
    <path fill="none" class="highcharts-plot-border" d="M32 43h285v136H32z"/>
    <g class="highcharts-axis highcharts-xaxis">
        <path fill="none" class="highcharts-axis-line" stroke="#B9CFD7" stroke-width=".5" d="M32 179.25h285"/>
    </g>
    <g class="highcharts-axis highcharts-yaxis">
        <path fill="none" class="highcharts-axis-line" d="M32 43v136"/>
    </g>
    <g class="highcharts-series-group">
        <g class="highcharts-series highcharts-series-0 highcharts-line-series highcharts-color-undefined" transform="translate(32 43)" clip-path="url(#a)">
            <path fill="none" d="M2.794 32.604l15.523-1.493L33.84 47.049l15.523-6.82 15.523 5.497 15.522-2.374 15.523-5.225 15.523-5.487 15.523 7.757 15.523.298 15.523 10.985 15.523 21.76 15.523 11.951 15.523-50.668 15.522 69.13 15.523 8.971 15.523 7.513 15.523-7.221 15.523-5.456" class="highcharts-graph" stroke="#83522E" stroke-width="2" stroke-linejoin="round" stroke-linecap="round"/>
        </g>
        <g class="highcharts-markers highcharts-series-0 highcharts-line-series highcharts-color-undefined">
            <path fill="#83522E" d="M38 76a4 4 0 1 1 0-.004zm16-2a4 4 0 1 1 0-.004zm15 16a4 4 0 1 1 0-.004zm16-7a4 4 0 1 1 0-.004zm15 6a4 4 0 1 1 0-.004zm16-3a4 4 0 1 1 0-.004zm15-5a4 4 0 1 1 0-.004zm16-5a4 4 0 1 1 0-.004zm15 7a4 4 0 1 1 0-.004zm16 1a4 4 0 1 1 0-.004zm16 11a4 4 0 1 1 0-.004zm15 21a4 4 0 1 1 0-.004zm16 12a4 4 0 1 1 0-.004zm15-50a4 4 0 1 1 0-.004zm16 69a4 4 0 1 1 0-.004zm15 9a4 4 0 1 1 0-.004zm16 7a4 4 0 1 1 0-.004zm15-7a4 4 0 1 1 0-.004zm16-5a4 4 0 1 1 0-.004z" class="highcharts-point"/>
        </g>
    </g>
    <text x="3" class="highcharts-title" y="22" color="#000" font-size="10" font-weight="700">
        <tspan>Leerwohnungsquote</tspan>
    </text>
    <g class="highcharts-data-labels highcharts-series-0 highcharts-line-series highcharts-color-undefined">
        <text x="5" y="15" font-size="10" font-weight="400" color="#000" transform="translate(27 40)" class="highcharts-label highcharts-data-label highcharts-data-label-color-undefined">
            <tspan x="5" y="15" class="highcharts-text-outline" fill="#FFF" stroke="#FFF" stroke-width="2" stroke-linejoin="round">1998:</tspan><tspan x="5" dy="13" class="highcharts-text-outline" fill="#FFF" stroke="#FFF" stroke-width="2" stroke-linejoin="round">1,5</tspan><tspan x="5" y="15">1998:</tspan><tspan x="5" dy="13">1,5</tspan>
        </text>
        <text x="5" y="15" font-size="10" font-weight="400" color="#000" transform="translate(287 115)" class="highcharts-label highcharts-data-label highcharts-data-label-color-undefined">
            <tspan x="5" y="15" class="highcharts-text-outline" fill="#FFF" stroke="#FFF" stroke-width="2" stroke-linejoin="round">2016:</tspan><tspan x="5" dy="13" class="highcharts-text-outline" fill="#FFF" stroke="#FFF" stroke-width="2" stroke-linejoin="round">0,4</tspan><tspan x="5" y="15">2016:</tspan><tspan x="5" dy="13">0,4</tspan>
        </text>
    </g>
    <g class="highcharts-axis-labels highcharts-xaxis-labels" text-anchor="middle" color="#000" cursor="default" font-size="10">
        <text x="34.794" y="199">
            1998
        </text>
        <text x="81.363" y="199">
            2001
        </text>
        <text x="127.931" y="199">
            2004
        </text>
        <text x="174.5" y="199">
            2007
        </text>
        <text x="221.069" y="199">
            2010
        </text>
        <text x="267.637" y="199">
            2013
        </text>
        <text x="305.906" y="199">
            2016
        </text>
    </g>
    <g class="highcharts-axis-labels highcharts-yaxis-labels" text-anchor="end" color="#000" cursor="default" font-size="10">
        <text x="17" y="185">
            <tspan>0.0</tspan>
        </text>
        <text x="17" y="117">
            <tspan>1.0</tspan>
        </text>
        <text x="17" y="49">
            <tspan>2.0</tspan>
        </text>
    </g>
    <text x="10" class="highcharts-credits" y="193" cursor="default" color="#000" font-size="10">
        <tspan>Quelle: Statistisches Amt Basel-Stadt, Leerstandserhebung</tspan>
    </text>
</svg>
